assets/about/id.svg

<svg width="101" height="100" viewBox="0 0 101 100" fill="none" xmlns="http://www.w3.org/2000/svg">
<g clip-path="url(#clip0_158_1396)">
<path d="M101.409 100H0.825195V0H101.409V100Z" fill="#46061E"/>
<path d="M30.5576 71.2333V33.5347H37.8801V71.2333H30.5576Z" fill="#D9385E"/>
<path d="M56.257 71.7664C48.0896 71.7664 43.0303 64.9569 43.0303 57.3226C43.0303 48.6724 48.8641 42.9392 55.4624 42.9392C57.3615 42.9272 59.2302 43.4166 60.8797 44.3579C62.5292 45.2992 63.9011 46.6591 64.8569 48.3003V32.4785H71.9681V63.0659C71.9681 63.8102 72.9739 65.1581 73.6177 65.1983V71.2333C72.6261 71.4537 71.6156 71.5783 70.6002 71.6055C65.4604 71.6055 65.923 66.4053 65.923 66.4053C64.9233 68.0679 63.504 69.4384 61.8075 70.3794C60.1109 71.3203 58.1967 71.7987 56.257 71.7664ZM58.1178 65.7314C62.5736 65.7314 64.6054 61.708 64.8569 61.0643V54.4258C64.5752 53.6513 62.0204 49.0044 57.6853 49.0044C52.8472 49.0044 50.4131 53.8123 50.4131 57.5037C50.4131 61.5371 53.4004 65.7113 58.1178 65.7113V65.7314Z" fill="#D9385E"/>
</g>
<defs>
<clipPath id="clip0_158_1396">
<rect width="100" height="100" fill="white" transform="translate(0.855469)"/>
</clipPath>
</defs>
</svg>

<svg xmlns="http://www.w3.org/2000/svg" width="101" height="100" fill="none" xmlns:v="https://vecta.io/nano"><g clip-path="url(#A)"><path d="M101.409 100H.825V0h100.584v100z" fill="#46061e"/><g fill="#d9385e"><path d="M30.558 71.233V33.535h7.322v37.699h-7.322zm25.699.533c-8.167 0-13.227-6.809-13.227-14.444 0-8.65 5.834-14.383 12.432-14.383 1.899-.012 3.768.477 5.417 1.419s3.021 2.301 3.977 3.942V32.478h7.111v30.587c0 .744 1.006 2.092 1.65 2.132v6.035c-.992.22-2.002.345-3.017.372-5.14 0-4.677-5.2-4.677-5.2a11.06 11.06 0 0 1-4.116 3.974 11.07 11.07 0 0 1-5.55 1.387zm1.861-6.035c4.456 0 6.488-4.023 6.739-4.667v-6.639c-.282-.775-2.836-5.421-7.172-5.421-4.838 0-7.272 4.808-7.272 8.499 0 4.033 2.987 8.208 7.705 8.208v.02z"/></g></g><defs><clipPath id="A"><path fill="#fff" transform="translate(.855)" d="M0 0h100v100H0z"/></clipPath></defs></svg>
